X:1
T:[ID 8-94b]
T:[ID 8-94b]
T:Bezeichnung standardisiert: Allemande Allemande
T:Urheber unbekannt Erstbeleg: 1792 (Datum in der schriftlichen Quelle) Datum in der hier transkribierten schriftlichen Quelle: 1796
C:Urheber unbekannt
C:Erstbeleg: 1792 (Datum in der schriftlichen Quelle)
C:Datum in der hier transkribierten schriftlichen Quelle: 1796
L:1/8
M:2/4
K:D
V:1 treble 
V:1
 d/c/d/e/ f/e/f/g/ | afge | d/c/d/e/ f/e/f/g/ | aa a2 | Ag g2 | Af f2 | Aagf | f2 e2 :: geec | %9
 d/c/d/e/ df | feeg | f/e/f/g/ f2 | aggb | ba a2 | gfed | d2 D2 :| %16

